packages/components/src/components/icon/common/ic-demo-reset-balance.svg

<svg width="128" height="128" viewBox="0 0 128 128" fill="none" xmlns="http://www.w3.org/2000/svg">
<rect width="128" height="128" fill="white"/>
<g clip-path="url(#clip0_6578_103750)">
<path d="M85.6906 29.9139H83.6985H82.3705H76.3942L81.2637 13.0918H23.9357C17.9594 13.0918 13.0898 17.9614 13.0898 23.9376V85.6926C13.0898 89.4554 16.1887 92.5542 19.9515 92.5542H85.6906C89.4535 92.5542 92.5523 89.4554 92.5523 85.6926V36.7756C92.5523 33.0127 89.4535 29.9139 85.6906 29.9139ZM23.9357 17.74H75.0661L73.9594 21.5029H23.7143C22.3863 21.5029 21.2796 22.6096 21.2796 23.9376C21.2796 25.2657 22.3863 26.3724 23.7143 26.3724H72.8527L71.746 30.1353H25.9278C20.8369 30.1353 17.7381 27.7005 17.7381 24.159C17.7381 20.3961 20.3942 17.74 23.9357 17.74Z" fill="#85ACB0"/>
<path d="M39.8731 56.916H26.3711V62.0069H39.8731V56.916Z" fill="white"/>
<path d="M60.6778 56.916H47.1758V62.0069H60.6778V56.916Z" fill="white"/>
<path d="M79.2715 56.916H65.7695V62.0069H79.2715V56.916Z" fill="white"/>
<path d="M46.0714 63.7812H40.9805V68.8722H46.0714V63.7812Z" fill="white"/>
<g style="mix-blend-mode:multiply">
<path d="M87.8619 114.909C102.799 114.909 114.907 102.801 114.907 87.8638C114.907 72.927 102.799 60.8184 87.8619 60.8184C72.9251 60.8184 60.8164 72.927 60.8164 87.8638C60.8164 102.801 72.9251 114.909 87.8619 114.909Z" fill="#FF444F"/>
</g>
<path d="M100.258 74.117L104.766 69.6094H92.1448V82.2306L96.8777 77.4976C99.5823 79.9768 101.16 83.5829 101.16 87.4143C101.16 94.401 95.9762 100.036 89.2148 100.937V105.895C98.6807 104.994 106.118 97.1056 106.118 87.4143C106.118 82.456 104.09 77.4976 100.258 74.117Z" fill="white"/>
<path d="M69.6055 88.0916C69.6055 93.2753 71.6339 98.0083 75.4653 101.614L70.9577 106.122H83.579V93.5007L78.846 98.2337C76.1415 95.7545 74.5638 92.1484 74.5638 88.317C74.5638 81.3303 79.7475 75.6958 86.5089 74.7943V69.8359C77.2683 70.5121 69.6055 78.4003 69.6055 88.0916Z" fill="white"/>
</g>
<defs>
<clipPath id="clip0_6578_103750">
<rect width="101.818" height="101.818" fill="white" transform="translate(13.0898 13.0918)"/>
</clipPath>
</defs>
</svg>

<svg width="128" height="128" viewBox="0 0 128 128" fill="none" xmlns="http://www.w3.org/2000/svg"><path fill="#fff" d="M0 0h128v128H0z"/><g clip-path="url(#a)"><path d="M85.69 29.914h-9.296l4.87-16.822H23.936c-5.977 0-10.846 4.87-10.846 10.846v61.755c0 3.762 3.099 6.861 6.861 6.861h65.74c3.763 0 6.861-3.099 6.861-6.861V36.776c0-3.763-3.099-6.862-6.861-6.862ZM23.937 17.74h51.13l-1.107 3.763H23.714a2.456 2.456 0 0 0-2.434 2.435 2.456 2.456 0 0 0 2.434 2.434h49.139l-1.107 3.763H25.928c-5.091 0-8.19-2.434-8.19-5.976 0-3.763 2.656-6.419 6.198-6.419Z" fill="#85ACB0"/><path d="M39.873 56.916H26.371v5.09h13.502v-5.09Zm20.805 0H47.176v5.09h13.502v-5.09Zm18.594 0H65.769v5.09h13.502v-5.09Zm-33.201 6.865h-5.09v5.091h5.09v-5.09Z" fill="#fff"/><path d="M87.862 114.909c14.937 0 27.045-12.108 27.045-27.045 0-14.937-12.108-27.046-27.045-27.046-14.937 0-27.046 12.109-27.046 27.046s12.11 27.045 27.046 27.045Z" fill="#FF444F" style="mix-blend-mode:multiply"/><path d="m100.258 74.117 4.508-4.508H92.145v12.622l4.733-4.733c2.704 2.479 4.282 6.085 4.282 9.916 0 6.987-5.184 12.622-11.945 13.523v4.958c9.466-.901 16.903-8.79 16.903-18.48 0-4.959-2.028-9.917-5.86-13.298ZM69.606 88.092c0 5.183 2.028 9.916 5.86 13.522l-4.508 4.508h12.621V93.501l-4.733 4.733c-2.705-2.48-4.282-6.086-4.282-9.917 0-6.987 5.184-12.621 11.945-13.523v-4.958c-9.24.676-16.903 8.564-16.903 18.256Z" fill="#fff"/></g><defs><clipPath id="a"><path fill="#fff" d="M13.09 13.092h101.818V114.91H13.09z"/></clipPath></defs></svg>
